paymentMethods/payU.svg

<svg width="128" height="64" viewBox="0 0 128 64" fill="none" xmlns="http://www.w3.org/2000/svg">
<rect width="128" height="64" rx="6" fill="white"/>
<path fill-rule="evenodd" clip-rule="evenodd" d="M93.3523 26.112C93.1039 26.112 92.8656 26.0133 92.6899 25.8376C92.5142 25.662 92.4155 25.4237 92.4155 25.1752V25.1752V21.0082H92.0692C89.9144 21.0082 89.1161 21.3626 89.1161 23.3218V28.9634C89.1118 28.9972 89.1118 29.0314 89.1161 29.0652V35.4522C89.1477 36.1139 88.9864 36.7705 88.6517 37.3422C88.0692 38.2465 86.9043 38.6579 85.0468 38.6619C83.1894 38.666 82.0285 38.2546 81.4419 37.3463C81.1071 36.7731 80.9458 36.1152 80.9776 35.4522V23.3218C80.9776 21.3626 80.1629 21.0082 78.0285 21.0082H77.3483C75.1975 21.0082 74.3992 21.3626 74.3992 23.3218V35.4522C74.3466 37.1871 74.7934 38.9006 75.6863 40.389C77.3157 42.9715 80.5132 44.3442 85.055 44.3442H85.0876C89.609 44.3442 92.7902 42.9715 94.4562 40.389C95.3523 38.9018 95.8006 37.1877 95.7474 35.4522V26.112H93.3523Z" fill="#A6C307"/>
<path fill-rule="evenodd" clip-rule="evenodd" d="M103.303 19.4074H99.7637C99.5793 19.4074 99.4023 19.3347 99.2712 19.2051C99.14 19.0754 99.0653 18.8993 99.0631 18.7149V15.1141C99.0642 14.9297 99.1379 14.7531 99.2683 14.6227C99.3987 14.4924 99.5753 14.4186 99.7597 14.4176H103.303C103.488 14.4197 103.663 14.4937 103.794 14.6239C103.924 14.7541 103.998 14.93 104 15.1141V18.6945C104 18.8796 103.927 19.0572 103.796 19.1885C103.666 19.3198 103.489 19.3941 103.303 19.3952M98.5865 14.4257H96.1792C96.0535 14.4236 95.9335 14.3727 95.8445 14.2838C95.7556 14.1949 95.7047 14.0749 95.7026 13.9491V11.5051C95.7068 11.3812 95.7588 11.2637 95.8476 11.1772C95.9364 11.0906 96.0552 11.0418 96.1792 11.0408H98.5825C98.7089 11.0408 98.8301 11.091 98.9195 11.1804C99.0088 11.2697 99.0591 11.391 99.0591 11.5173V13.9613C99.0596 14.0234 99.0479 14.0849 99.0246 14.1425C99.0014 14.2 98.967 14.2524 98.9235 14.2967C98.88 14.3409 98.8283 14.3762 98.7711 14.4004C98.714 14.4246 98.6527 14.4374 98.5906 14.4379V14.4379" fill="#A6C307"/>
<path fill-rule="evenodd" clip-rule="evenodd" d="M37.7352 28.3891C37.7352 31.2648 37.002 32.829 33.1242 32.829H27.1527V25.3992C27.1527 24.3687 27.5356 23.9858 28.5662 23.9858H33.1242C36.0448 23.9858 37.7352 24.7068 37.7352 28.3891M33.1202 21.0041H27.9756C25.2261 21.0041 24 22.2261 24 24.9797V42.6457C24 43.7088 24.3381 44.051 25.4012 44.051H25.7515C26.8147 44.051 27.1527 43.7088 27.1527 42.6457V35.774H33.1242C38.4195 35.774 40.8921 33.4278 40.8921 28.3891C40.8921 23.3504 38.4236 21.0041 33.1242 21.0041M51.9919 36.108V38.5316C51.9919 40.5072 51.2627 41.6477 47.5112 41.6477C45.0387 41.6477 43.8452 40.7557 43.8452 38.9145C43.8452 36.8779 45.0672 36.108 48.1466 36.108H51.9919ZM47.5112 26.0673C46.2342 26.0525 44.9591 26.1713 43.7067 26.4216C42.8513 26.609 42.4847 26.829 42.4847 27.8188V28.0999C42.4667 28.3824 42.5273 28.6644 42.6599 28.9145C42.7341 29.0246 42.8362 29.113 42.9556 29.171C43.0751 29.2289 43.2077 29.2543 43.3401 29.2445C43.5192 29.2413 43.6972 29.2153 43.8697 29.1671C45.1108 28.9129 46.3746 28.786 47.6415 28.7882C50.721 28.7882 51.9756 29.6436 51.9756 31.7333V33.5988H48.1141C43.1242 33.5988 40.7821 35.2811 40.7821 38.8942C40.7821 42.4013 43.1853 44.332 47.5438 44.332C52.721 44.332 55.0305 42.5683 55.0305 38.6294V31.7496C55.0305 27.9288 52.5866 26.0469 47.5071 26.0469L47.5112 26.0673ZM72.1059 26.8819C71.9644 26.7557 71.797 26.6619 71.6155 26.607C71.434 26.5522 71.2427 26.5375 71.055 26.5642H70.7413C69.7026 26.5642 69.2953 26.886 69.0672 27.884L66.1792 39.8799C65.8208 41.3544 65.3116 41.6233 64.4481 41.6233C63.3849 41.6233 62.9613 41.3707 62.5377 39.8758L59.279 27.8758C59.0102 26.8738 58.611 26.5642 57.5723 26.5642H57.2912C57.1032 26.5364 56.9112 26.5508 56.7295 26.6065C56.5477 26.6621 56.3806 26.7576 56.2403 26.886C56.1538 27.0569 56.106 27.2448 56.1004 27.4363C56.0948 27.6278 56.1314 27.8182 56.2077 27.994L59.5193 40.108C60.1426 42.4217 60.8758 44.3402 63.6293 44.3402C64.0987 44.3439 64.5658 44.2752 65.0143 44.1365C64.1792 46.7597 63.332 47.9166 60.8269 48.1773C60.3177 48.218 59.9878 48.2913 59.8045 48.5357C59.7261 48.6805 59.6785 48.8398 59.6644 49.0038C59.6504 49.1678 59.6704 49.3329 59.723 49.4889L59.7923 49.7984C59.943 50.5153 60.1996 50.9593 61.0143 50.9593H61.2872C65.0265 50.7149 67.0305 48.7027 68.2118 44.0102L72.2118 28.0102C72.2771 27.8351 72.3051 27.6482 72.2938 27.4616C72.2826 27.275 72.2325 27.0928 72.1466 26.9267M98.1507 19.4359H93.3849C93.2619 19.4354 93.14 19.4591 93.0261 19.5057C92.9122 19.5522 92.8086 19.6208 92.7213 19.7074C92.6339 19.794 92.5644 19.897 92.5169 20.0105C92.4693 20.1239 92.4445 20.2457 92.444 20.3687V21.0204H92.7739C94.9246 21.0204 95.7271 21.3748 95.7271 23.3341V26.1121H98.1466C98.2697 26.1126 98.3916 26.0889 98.5055 26.0423C98.6193 25.9957 98.7229 25.9272 98.8103 25.8406C98.8977 25.7539 98.9671 25.651 99.0147 25.5375C99.0623 25.424 99.087 25.3023 99.0876 25.1793V20.3443C99.0854 20.0954 98.9856 19.8573 98.8096 19.6813C98.6336 19.5053 98.3955 19.4054 98.1466 19.4033" fill="#A6C307"/>
</svg>

<svg xmlns="http://www.w3.org/2000/svg" width="128" height="64" fill="none"><rect width="128" height="64" fill="#fff" rx="6"/><path fill="#A6C307" fill-rule="evenodd" d="M93.352 26.112a.937.937 0 0 1-.937-.937v-4.167h-.346c-2.155 0-2.953.355-2.953 2.314v5.641a.403.403 0 0 0 0 .102v6.387a3.418 3.418 0 0 1-.464 1.89c-.583.904-1.748 1.316-3.605 1.32-1.858.004-3.019-.407-3.605-1.316a3.43 3.43 0 0 1-.464-1.894v-12.13c0-1.96-.815-2.314-2.95-2.314h-.68c-2.15 0-2.949.355-2.949 2.314v12.13a9.063 9.063 0 0 0 1.287 4.937c1.63 2.582 4.827 3.955 9.369 3.955h.033c4.521 0 7.702-1.373 9.368-3.955a9.03 9.03 0 0 0 1.291-4.937v-9.34h-2.395ZM103.303 19.407h-3.54a.7.7 0 0 1-.7-.692v-3.6a.7.7 0 0 1 .697-.697h3.543a.706.706 0 0 1 .697.696v3.58a.699.699 0 0 1-.697.701m-4.716-4.97h-2.408a.485.485 0 0 1-.476-.476v-2.444a.48.48 0 0 1 .476-.464h2.403a.477.477 0 0 1 .477.476v2.444a.473.473 0 0 1-.468.477" clip-rule="evenodd"/><path fill="#A6C307" fill-rule="evenodd" d="M37.735 28.39c0 2.875-.733 4.439-4.61 4.439h-5.972v-7.43c0-1.03.383-1.413 1.413-1.413h4.558c2.92 0 4.611.72 4.611 4.403m-4.615-7.385h-5.144c-2.75 0-3.976 1.222-3.976 3.976v17.666c0 1.063.338 1.405 1.401 1.405h.35c1.064 0 1.402-.342 1.402-1.405v-6.872h5.971c5.295 0 7.768-2.346 7.768-7.385s-2.468-7.385-7.768-7.385m18.868 15.104v2.424c0 1.975-.73 3.116-4.48 3.116-2.473 0-3.667-.892-3.667-2.734 0-2.036 1.222-2.806 4.302-2.806h3.845Zm-4.48-10.04a18.329 18.329 0 0 0-3.805.354c-.856.187-1.222.407-1.222 1.397v.28c-.018.283.042.565.175.816a.753.753 0 0 0 .68.33c.18-.004.357-.03.53-.078a18.636 18.636 0 0 1 3.772-.379c3.079 0 4.334.856 4.334 2.945V33.6h-3.862c-4.99 0-7.332 1.682-7.332 5.295 0 3.507 2.403 5.438 6.762 5.438 5.177 0 7.487-1.764 7.487-5.703v-6.88c0-3.82-2.444-5.702-7.524-5.702l.004.02Zm24.594.814a1.304 1.304 0 0 0-1.051-.318h-.314c-1.038 0-1.446.322-1.674 1.32L66.18 39.88c-.358 1.474-.867 1.743-1.73 1.743-1.064 0-1.488-.252-1.911-1.747l-3.259-12c-.269-1.002-.668-1.312-1.707-1.312h-.28a1.279 1.279 0 0 0-1.052.322 1.303 1.303 0 0 0-.032 1.108l3.311 12.114c.624 2.314 1.357 4.232 4.11 4.232.47.004.937-.065 1.385-.204-.835 2.624-1.682 3.78-4.187 4.041-.51.041-.84.114-1.023.359a1.199 1.199 0 0 0-.081.953l.07.31c.15.716.407 1.16 1.221 1.16h.273c3.74-.244 5.744-2.256 6.925-6.949l4-16a1.339 1.339 0 0 0-.065-1.083m26.004-7.491h-4.766a.937.937 0 0 0-.941.933v.651h.33c2.15 0 2.953.355 2.953 2.314v2.778h2.42a.938.938 0 0 0 .94-.933v-4.835a.95.95 0 0 0-.94-.94" clip-rule="evenodd"/></svg>
